seat-passenger.svg

<svg fill="currentColor" viewBox="0 0 24 24"><path d="M9 19h6v2H9c-2.76 0-5-2.24-5-5V7h2v9c0 1.66 1.34 3 3 3m1.42-13.59c.78-.78.78-2.05 0-2.83s-2.05-.78-2.83 0-.78 2.05 0 2.83c.78.79 2.04.79 2.83 0M11.5 9c0-1.1-.9-2-2-2H9c-1.1 0-2 .9-2 2v6c0 1.66 1.34 3 3 3h5.07l3.5 3.5L20 20.07 14.93 15H11.5z"/></svg>

<svg  viewBox="0 0 24 24" fill="currentColor"><path  d="M9 19H15V21H9C6.24 21 4 18.76 4 16V7H6V16C6 17.66 7.34 19 9 19M10.42 5.41C11.2 4.63 11.2 3.36 10.42 2.58C9.64 1.8 8.37 1.8 7.59 2.58C6.81 3.36 6.81 4.63 7.59 5.41C8.37 6.2 9.63 6.2 10.42 5.41M11.5 9C11.5 7.9 10.6 7 9.5 7H9C7.9 7 7 7.9 7 9V15C7 16.66 8.34 18 10 18H15.07L18.57 21.5L20 20.07L14.93 15H11.5L11.5 9Z"/></svg>
